X:1
T:Velma by Starlight
M:3/4
L:1/8
C:© Paul Gitlitz 2005
R:Waltz
B:Hunters and Gatherers
N:In Honor of Velma whose life touched many and brought light.
K:D
"D"F2"A"E3F|"D"A6|"D"F2"A"E2"D"F2|"D"A6|!
"Bm"B2"A"A2"Bm"B2|"D"d6|"A"e2"D"d3e|"Bm"f6|!
"D"F2"A"E3F|"D"A6|"Bm"B2"D"A2"Bm"B2|"D"d6|!
"D"a2f2d2|"A"e3d"F#m"c2|"D"d6-|1"D"d4 "A"AG:|2"D"d4de||!
|:"D"f2a4|"D"fa-a4|"A"e3de2|"D"f2d2"Bm"B2|!
"D"A2F3A|"Bm"B2"D"d2"A"e2|"D"f2a3f|"A"e6|!
"D"f2a4|"D"fa-a4|"A"e3de2|"D"f2d2"Bm"B2|!
"D"A2F3A|"Bm"B2"D"d2{g}f2|"A"e3d"F#m"c2|"D"d6:|!

% Written by ABC2Win  2.2.109 on 1/13/2006
